X: 608
T: Midnight on the Water
B: good tune book
B: tunes
M:3/4
R: waltz
Q: 1/4=100
K:Dmajor
V:1 
DE|:"D" F2 F2 FE|"D" F2 F2 FE|"D" FA3 AB|"D" AF ED DE|
 "D" Fd2D "G" B2|"D" A3F (3DED|"A" FA2F ED|1 "D" D4 (3DED:|2 "D"D2 (3DEF (3ABc||
 |:"D" d3c de|"Bm" dc BA Bc|"D" d2 dB AF|"D" D2 d3d|
 "Em" e4 ef|"Em" e2 d2 ed|"Bm" f2 fa fe|"D" dc BA Bc|
 "G" d3c de|"G" dc BA Bc|"D" d2 dB AF|"D" D3F DE|
 "D" Fd2D "G" B2|"D" A3F (3DED|"A" FA2F ED|1 "D"D2- (3DEF:|2 "D" D3E||
W: never thought much of that fancy dancing
W: With my two left feet and my roving eye.
W: But when the band plays that slow air in three-four time,
W: I could dance with my darling until morning comes.
W: 
W: Chorus:
W: Play me a fiddle tune, sing me a song!
W: Banish misfortune, my time is not long!
W: Midnight on the water, so steady and slow.
W: The lark in the morning, one more for the road.
W: Midnight on the water, so steady and slow.
W: Let's have another drink and set them up Joe.
W: 
W: Well, I've done all my dancing down in those bar-rooms.
W: Dancing and drinking they go hand in glove.
W: So give a beer to the fiddler, and play all the old tunes
W: So I can dance closer to the one that I love!
W: 
W: 2 × Chorus
% abcbook-tune_id 63dce673f1b68ca9fa6a1553
% abcbook-tune_composer_id 
% abcbook-link-0 https://www.youtube.com/watch?v=EhUaqbcx10A
% abcbook-boost 0
% abcbook-difficulty 0
% abcbook-tags good tune book
% abcbook-tablature 
% abcbook-transpose 
% abcbook-tuning 
% abcbook-lastupdated 1675475828408
% abcbook-soundfonts 
% abcbook-repeats 1


